public/assets/Sponsors/past/streamyard.svg

<svg width="231" height="41" viewBox="0 0 231 41" fill="none" xmlns="http://www.w3.org/2000/svg">
<g clip-path="url(#clip0_5:2)">
<path d="M57.5849 31.4959L57.9418 28.8658C59.5984 29.923 62.3254 31.238 65.9445 31.238C70.1243 31.238 72.469 29.5878 72.469 26.674C72.469 19.0159 57.3046 24.1213 57.3046 14.2198C57.3046 9.52694 60.363 7 65.868 7C71.1692 7 73.6924 9.19174 74.1511 12.879L71.5514 13.3947C71.1437 10.6357 69.2832 9.32066 65.8171 9.32066C62.147 9.32066 59.9807 10.9709 59.9807 13.9619C59.9807 21.9553 75.0177 16.4116 75.1196 26.6225C75.1451 31.3927 72.0867 33.7391 65.9954 33.7391C61.5098 33.6876 58.9867 32.4241 57.5849 31.4959Z" fill="#359FDB"/>
<path d="M81.898 17.9844V28.9173C81.898 30.9286 82.79 31.3927 84.1408 31.3927C85.3897 31.3927 86.2052 31.0317 86.7659 30.7996L86.9698 33.0945C86.3582 33.3008 85.2112 33.6876 83.4782 33.6876C80.8021 33.6876 79.2984 32.7335 79.2984 28.9431V17.9844H76.0871V15.7669H79.2984V10.6614H81.898V15.7669H87.3776V17.9844H81.898Z" fill="#359FDB"/>
<path d="M98.5402 15.6379L98.362 18.2164C98.1581 18.1391 97.6736 18.0617 97.0365 18.0617C94.4367 18.0617 92.7803 21.156 92.7803 23.9923V33.6649H90.1807V15.7669H92.4493L92.6276 19.1189C93.5957 16.9014 95.1506 15.4059 96.9853 15.4059C97.8016 15.4059 98.2596 15.5348 98.5402 15.6379Z" fill="#359FDB"/>
<path d="M114.623 31.8826C113.731 32.6561 111.412 33.7133 107.843 33.7133C102.287 33.7133 99.5096 30.3612 99.5096 24.6627C99.5096 19.2736 102.237 15.4059 108.047 15.4059C112.635 15.4059 114.521 17.8038 114.521 20.4339C114.521 24.869 110.799 26.2614 102.237 26.6224C102.771 30.0776 104.938 31.3926 108.047 31.3926C111.08 31.3926 113.373 30.0776 114.113 29.4845L114.623 31.8826ZM102.109 24.508C109.602 24.2243 111.946 23.3735 111.946 20.6145C111.946 19.222 110.978 17.7007 107.971 17.7007C104.785 17.7007 102.185 19.4799 102.109 24.508Z" fill="#359FDB"/>
<path d="M132.131 15.7669V33.7133H129.965L129.685 30.748C128.538 32.5014 126.575 33.7133 123.874 33.7133C119.261 33.7133 116.279 30.4386 116.279 24.8433C116.279 18.9384 119.566 15.4059 124.23 15.4059C126.856 15.4059 128.666 16.4373 129.71 17.9328L129.965 15.7927H132.131V15.7669ZM129.532 26.4419V23.2961C129.532 20.8465 128.308 17.6749 124.485 17.6749C120.917 17.6749 118.853 20.4081 118.853 24.8174C118.853 29.0461 120.765 31.3669 124.23 31.3669C127.544 31.3926 129.532 29.2525 129.532 26.4419Z" fill="#359FDB"/>
<path d="M161.924 22.3678V33.7649H159.325V22.7804C159.325 19.6346 158.101 17.778 155.4 17.778C152.163 17.778 150.354 20.3308 150.354 22.6514V33.7391H147.805V22.5741C147.805 19.5057 146.556 17.7523 143.905 17.7523C140.668 17.7523 138.885 20.3308 138.885 22.6772V33.7391H136.285V15.7669H138.298L138.655 18.7579C139.7 16.824 141.688 15.4059 144.568 15.4059C147.269 15.4059 149.105 16.6693 149.895 19.0416C150.914 16.9272 153.004 15.4059 156.011 15.4059C159.809 15.4059 161.924 17.7265 161.924 22.3678Z" fill="#359FDB"/>
<path d="M184.507 7.38672L175.128 23.3219V33.6565H170.26V23.3219L160.881 7.38672H166.361L172.733 18.758L179.155 7.38672H184.507Z" fill="#359FDB"/>
<path d="M198.218 15.7669V33.7133H194.624L194.038 31.1347C192.891 32.7076 190.98 33.7133 188.482 33.7133C183.894 33.7133 180.708 30.387 180.708 24.8174C180.708 18.9384 184.2 15.4059 188.813 15.4059C191.235 15.4059 192.917 16.3084 194.013 17.6234L194.42 15.7669H198.218ZM193.451 25.7972V23.2704C193.273 21.2333 192.127 19.4541 189.603 19.4541C187.054 19.4541 185.322 21.2849 185.322 24.74C185.322 27.9889 186.825 29.6651 189.425 29.6651C191.973 29.6393 193.451 28.0148 193.451 25.7972Z" fill="#359FDB"/>
<path d="M211.802 15.6894L211.521 20.2535C211.241 20.1503 210.731 19.9956 209.941 19.9956C208.106 19.9956 206.399 21.6717 206.399 24.9979V33.6482H201.607V15.7669H205.456L205.864 18.3969C206.807 16.5662 208.234 15.4059 210.043 15.4059C210.961 15.4059 211.572 15.5863 211.802 15.6894Z" fill="#359FDB"/>
<path d="M229.515 7.38672V33.7133H225.514L225.055 31.2637C223.807 32.6819 221.921 33.7133 219.398 33.7133C215.192 33.7133 212.083 30.7996 212.083 24.8432C212.083 18.8869 215.37 15.4059 220.595 15.4059C222.328 15.4059 223.704 15.7411 224.749 16.1794V7.38672H229.515ZM224.723 25.23V20.5371C223.882 19.9441 222.711 19.4541 221.13 19.4541C218.581 19.4541 216.874 21.1302 216.874 24.7659C216.874 28.2727 218.454 29.6393 220.518 29.6393C222.812 29.6393 224.723 27.9117 224.723 25.23Z" fill="#359FDB"/>
<path d="M42.1005 23.3421C41.6408 23.0295 41.1811 22.6907 40.7469 22.3782C37.9378 20.3722 34.6177 16.9074 33.9793 16.23C33.6473 14.2501 33.0599 11.8534 31.1957 9.09195C29.74 6.48681 27.1095 4.97582 25.5261 4.27243C24.1727 0.729439 17.4816 0.208411 14.9023 0.026051C14.5959 -3.98606e-07 14.2894 0 13.9829 0C8.8753 0 7.82823 3.56904 7.62393 5.05398C6.34702 5.13213 5.24888 5.44474 4.30397 5.99183C1.36707 7.73727 0.549844 11.2542 0.371076 13.8854C0.217847 16.3343 0.345538 17.2981 0.371076 17.4805C0.575381 19.4604 1.11169 20.9454 3.1292 22.5605C1.80122 28.6826 1.31599 35.8207 1.29046 35.8989L1.26492 36.0812L1.36707 36.2375C1.46922 36.3938 4.2018 40.015 10.2033 40.3797C10.4587 40.4058 10.7395 40.4058 10.9949 40.4058C17.5583 40.4058 19.9588 35.2215 20.061 35.0131L20.1632 34.8047L20.0865 34.5962C20.0865 34.5962 19.4992 32.9551 20.393 29.9331C21.1336 27.4322 23.764 26.9893 24.4536 26.9371C27.6203 29.386 36.431 34.0752 38.7295 35.0131C39.8787 35.4821 40.9768 35.7426 41.9473 35.7426C43.0965 35.7426 43.9647 35.3779 44.3734 34.7526C45.0629 33.6324 44.9352 32.5643 43.9903 31.6004C44.2457 31.6525 44.5522 31.6786 44.8841 31.7306C45.1906 31.7828 45.5992 31.8088 45.9823 31.8088C47.3869 31.8088 48.1786 31.1315 48.3828 29.7246C48.6127 28.0313 46.0589 26.0775 42.1005 23.3421ZM11.0205 39.9107C10.9949 39.9107 10.9949 39.9107 10.9694 39.9107C11.0716 39.9107 11.1737 39.9107 11.3014 39.9107C11.1993 39.9107 11.1226 39.9107 11.0205 39.9107ZM13.8807 0.547079C13.9063 0.547079 13.9574 0.547079 13.9829 0.547079C14.0595 0.547079 14.1106 0.547079 14.1872 0.547079C14.1106 0.547079 13.9829 0.521028 13.8807 0.547079ZM17.4306 0.833645C17.7881 0.885748 18.1712 0.93785 18.5542 0.989952C18.1712 0.93785 17.7881 0.859696 17.4306 0.833645Z" fill="#121A2C"/>
<path d="M40.6195 22.8211C37.4273 20.5546 33.6732 16.4905 33.6732 16.4905C33.3411 14.4064 32.7793 12.1139 30.9406 9.40458C29.4593 6.74732 26.6757 5.28844 25.2966 4.68927C24.2751 1.30258 17.5841 0.755499 15.0558 0.57314C8.13497 0.0521112 8.26266 5.80947 8.26266 5.80947L5.78546 14.172L3.92116 22.2479C2.49103 28.5003 2.0058 35.9509 2.0058 35.9509C2.0058 35.9509 4.6107 39.52 10.459 39.8848C17.3542 40.3015 19.8059 34.8047 19.8059 34.8047C19.8059 34.8047 19.1419 33.0592 20.1123 29.8029C21.0828 26.5464 24.8369 26.4161 24.8369 26.4161C27.8759 28.8389 36.891 33.6324 39.1383 34.5442C41.7943 35.6384 43.6586 35.2736 44.1438 34.4921C44.629 33.7105 44.8334 32.7206 43.3777 31.5743C42.4327 30.8449 41.8709 30.4541 41.8709 30.4541C42.9435 30.7146 43.0712 30.9752 45.1653 31.2357C46.6466 31.4181 47.8213 31.4181 48.0767 29.6987C48.281 27.9271 43.9906 25.2177 40.6195 22.8211Z" fill="#121A2C"/>
<path d="M11.1473 35.404C7.11225 35.2738 4.76273 33.8669 3.97105 33.3198L3.69012 35.3519C3.69012 35.3519 6.78024 38.3217 10.8664 38.3217C12.3221 38.3217 15.1824 38.478 17.9915 34.7267C17.9915 34.7267 17.8894 33.9451 17.9404 32.851C16.9189 33.8669 15.4122 35.5343 11.1473 35.404Z" fill="#FEFFFF"/>
<path d="M3.69012 33.1115C3.69012 33.1115 3.79224 33.1896 3.97095 33.3198L3.99648 33.0854L3.69012 33.1115Z" fill="#121A2C"/>
<path d="M18.4268 32.382L17.9672 32.4081C17.9672 32.5644 17.9416 32.6947 17.9416 32.851C18.1204 32.6686 18.2736 32.5123 18.4268 32.382Z" fill="#121A2C"/>
<path d="M31.5526 13.7552C29.8926 9.61301 26.8535 6.33056 23.457 5.21034C20.0604 4.09013 14.9272 3.07413 13.3439 6.98184C13.3439 6.98184 5.83564 20.2681 5.35042 23.3942L4.02243 33.0854L3.99689 33.3198C4.76304 33.8669 7.13809 35.2737 11.1731 35.4039C15.438 35.5342 16.9703 33.8669 17.9663 32.8249C17.9663 32.6946 17.9919 32.5383 17.9919 32.382C18.1195 30.897 18.5026 28.9953 19.6518 27.5364C21.8225 24.775 25.6022 24.6707 25.6022 24.6707C25.6022 24.6707 28.4625 25.0094 30.4545 22.8993C32.4464 20.7891 33.1871 17.9234 31.5526 13.7552Z" fill="#016666"/>
<path d="M34.0055 25.2698C34.0055 25.2698 36.8147 27.8229 37.8362 28.7086C38.8578 29.5944 43.1227 32.6425 43.1481 33.3198C43.1481 33.476 32.4477 28.3179 32.4477 28.3179C32.4477 28.3179 23.2795 21.8311 23.3305 21.6488C23.3816 21.4664 23.7136 20.1638 23.918 20.0857C24.1222 20.0075 28.4382 20.1638 28.4382 20.1638L34.0055 25.2698Z" fill="#79455B"/>
<path d="M23.8666 21.7791C24.6071 21.8832 28.7954 23.4984 31.2215 25.5304C33.6733 27.5624 37.7849 30.4802 38.9852 31.0534C40.1854 31.6525 43.2245 32.929 43.1479 33.424C43.0713 33.919 42.7138 34.7527 39.9301 33.6324C37.1464 32.4862 29.9191 28.1095 28.8976 27.4061C27.876 26.7027 22.7173 23.1077 22.7173 23.1077L23.8666 21.7791Z" fill="#C8842C"/>
<path d="M15.6434 13.5988C16.6649 13.3904 19.7551 13.4164 22.1301 15.7611C24.5051 18.1057 24.9137 19.9814 24.2497 21.6487C23.5857 23.3159 22.36 24.5665 19.9083 23.2378C17.4566 21.9092 15.1071 20.268 14.3664 18.236C13.6259 16.2039 15.6434 13.5988 15.6434 13.5988Z" fill="#02A484"/>
<path d="M1.06025 17.4544C1.2901 19.5646 1.87747 20.9714 4.27806 22.6908C5.3762 23.4724 6.55097 24.0976 9.05371 23.8892C11.582 23.6807 13.3696 21.9614 14.2124 20.0856C15.0552 18.21 16.4853 13.8854 15.4382 10.3946C14.4167 6.90366 12.5014 6.43473 11.5564 6.12211C10.6115 5.78345 7.26604 4.97585 4.71222 6.48683C2.1584 7.99781 1.21348 11.0719 1.03471 13.9636C0.881487 16.5948 1.06025 17.4544 1.06025 17.4544Z" fill="#121A2C"/>
<path d="M5.50346 8.15416C5.50346 8.15416 6.80591 7.29446 9.23204 7.81549C11.6581 8.33652 13.165 10.1081 13.165 12.2703C13.165 14.4326 12.9096 18.3402 10.9431 20.3201C9.33419 21.9353 5.12039 22.769 3.43487 19.4866C1.74935 16.2041 5.91207 13.7813 5.91207 13.7813L5.50346 8.15416Z" fill="#1565EA"/>
<path d="M18.2475 10.3946C17.9155 9.32642 18.7837 7.94569 20.9801 7.47677C23.1764 7.00784 25.4492 7.47677 26.624 9.58696C27.7988 11.6971 25.5769 12.7392 24.3 13.0257C23.0231 13.3123 19.0647 13.0258 18.2475 10.3946Z" fill="#02A484"/>
<path d="M21.3113 14.4325C21.5155 12.8955 22.486 11.7752 23.4564 11.671C23.9162 11.6189 24.2737 11.8534 24.5291 12.1921C24.4014 11.7752 24.1971 11.4105 23.9417 11.0979C22.8691 9.89951 20.8005 10.8634 20.162 13.2341C19.5236 15.6048 20.4174 17.5066 21.3368 17.7671C21.7709 17.8973 22.1285 17.8713 22.4605 17.7932C22.3839 17.7671 22.3328 17.7671 22.2562 17.7149C20.8771 17.0116 21.2347 15.0056 21.3113 14.4325Z" fill="#FDFFFF"/>
<path d="M24.531 12.192C24.914 13.3904 24.7097 14.9014 24.2756 15.8132C23.8414 16.6989 23.2795 17.5326 22.4368 17.767" fill="#121A2C"/>
<path d="M24.2751 15.8132C24.7092 14.9014 24.888 13.3903 24.5305 12.192C24.2751 11.8533 23.892 11.6188 23.4578 11.671C22.4874 11.7751 21.4914 12.8954 21.3127 14.4324C21.236 15.0056 20.9041 17.0375 22.2575 17.6889C22.3342 17.7148 22.3852 17.7409 22.4619 17.767C23.3046 17.5325 23.8665 16.6989 24.2751 15.8132Z" fill="#121A2C"/>
<path d="M44.7565 28.8129C44.118 28.1876 43.3008 27.4842 43.5562 27.1717C43.7094 26.9893 44.0925 26.9632 44.6543 27.1717C43.4796 26.338 41.9728 25.322 40.3639 24.1757C36.7375 21.5967 32.4471 17.5066 32.013 17.1939C30.5317 16.0998 30.2763 17.2721 30.2508 17.8452C30.2252 18.4184 30.2252 19.1218 28.9228 19.7209C27.6203 20.3202 26.1136 19.747 25.2198 19.6167C24.3259 19.4865 24.4025 20.2159 24.8367 20.5807C26.2924 21.779 41.3344 29.2297 44.5011 29.881C44.6032 29.907 44.6799 29.907 44.782 29.9331C44.9097 29.7247 45.2162 29.2558 44.7565 28.8129Z" fill="#FFCC34"/>
<path d="M46.9272 29.4642C47.0294 29.0474 46.0845 28.2398 44.6288 27.1717C44.067 26.9372 43.6838 26.9894 43.5307 27.1717C43.3008 27.4582 44.118 28.1876 44.7309 28.8129C45.1906 29.2557 44.9097 29.7247 44.7054 29.9331C46.442 30.2718 46.774 30.1936 46.9272 29.4642Z" fill="#C8842C"/>
<path d="M31.6805 20.763C31.9359 21.4143 33.1873 22.1177 33.8513 21.9613C34.5408 21.805 34.2089 21.1016 33.3661 20.268C32.5234 19.4604 31.1953 19.4864 31.6805 20.763Z" fill="#C8842C"/>
<path d="M7.26587 23.4984L7.4191 37.9308L9.15569 38.4779L8.92585 23.4984H7.26587Z" fill="#121A2C"/>
<path d="M10.7909 18.262C9.43736 21.3882 7.16447 21.284 5.22356 20.789C3.18051 20.268 2.6442 18.2099 2.56759 16.2821C2.54205 15.2401 2.92513 10.9155 4.25311 9.14401C5.5811 7.37251 8.03276 7.81539 8.77337 8.0238C9.51397 8.23221 12.2721 9.61291 11.8635 12.9997C11.4549 16.5687 11.3016 17.0897 10.7909 18.262Z" fill="white"/>
<path d="M3.99689 17.5586L4.43104 15.9955C4.43104 15.9955 6.26979 16.9855 7.13808 16.6207C7.98084 16.256 7.59778 15.3443 6.65286 14.9535C5.70795 14.5367 4.48211 13.8854 4.96734 11.9576C5.45256 10.0298 6.72948 9.45659 9.79407 10.629L9.23222 12.2962C9.23222 12.2962 6.72948 11.0198 6.49964 12.3744C6.3464 13.3904 9.94732 13.5207 9.30883 16.3602C8.415 19.9293 3.99689 17.5586 3.99689 17.5586Z" fill="#1565EA"/>
</g>
<defs>
<clipPath id="clip0_5:2">
<rect width="231" height="41" fill="white"/>
</clipPath>
</defs>
</svg>

<svg width="231" height="41" fill="none" xmlns="http://www.w3.org/2000/svg"><g clip-path="url(#a)"><path d="m57.585 31.496.357-2.63c1.656 1.057 4.383 2.372 8.003 2.372 4.18 0 6.524-1.65 6.524-4.564 0-7.658-15.164-2.553-15.164-12.454 0-4.693 3.058-7.22 8.563-7.22 5.301 0 7.824 2.192 8.283 5.879l-2.6.516c-.407-2.76-2.268-4.074-5.734-4.074-3.67 0-5.836 1.65-5.836 4.64 0 7.994 15.037 2.45 15.139 12.661.025 4.77-3.033 7.117-9.125 7.117-4.485-.051-7.008-1.315-8.41-2.243Zm24.313-13.512v10.933c0 2.012.892 2.476 2.243 2.476 1.249 0 2.064-.361 2.625-.593l.204 2.294a10.22 10.22 0 0 1-3.492.594c-2.676 0-4.18-.955-4.18-4.745V17.984h-3.21v-2.217h3.21V10.66h2.6v5.106h5.48v2.217h-5.48Zm16.642-2.346-.178 2.578c-.204-.077-.688-.154-1.325-.154-2.6 0-4.257 3.094-4.257 5.93v9.673h-2.6V15.767h2.27l.178 3.352c.968-2.218 2.523-3.713 4.357-3.713.817 0 1.275.129 1.555.232Zm16.083 16.245c-.892.773-3.211 1.83-6.78 1.83-5.556 0-8.333-3.352-8.333-9.05 0-5.39 2.727-9.257 8.537-9.257 4.588 0 6.474 2.398 6.474 5.028 0 4.435-3.722 5.827-12.284 6.188.534 3.456 2.701 4.77 5.81 4.77 3.033 0 5.326-1.314 6.066-1.907l.51 2.398Zm-12.514-7.375c7.493-.284 9.837-1.134 9.837-3.893 0-1.393-.968-2.914-3.975-2.914-3.186 0-5.786 1.779-5.862 6.807Zm30.022-8.741v17.946h-2.166l-.28-2.965c-1.147 1.753-3.11 2.965-5.811 2.965-4.613 0-7.595-3.274-7.595-8.87 0-5.905 3.287-9.437 7.951-9.437 2.626 0 4.436 1.031 5.48 2.527l.255-2.14h2.166v-.026Zm-2.599 10.675v-3.146c0-2.45-1.224-5.621-5.047-5.621-3.568 0-5.632 2.733-5.632 7.142 0 4.23 1.912 6.55 5.377 6.55 3.314.026 5.302-2.114 5.302-4.925Zm32.392-4.074v11.397h-2.599V22.78c0-3.145-1.224-5.002-3.925-5.002-3.237 0-5.046 2.553-5.046 4.873V33.74h-2.549V22.574c0-3.068-1.249-4.822-3.9-4.822-3.237 0-5.02 2.579-5.02 4.925V33.74h-2.6V15.767h2.013l.357 2.99c1.045-1.933 3.033-3.351 5.913-3.351 2.701 0 4.537 1.263 5.327 3.636 1.019-2.115 3.109-3.636 6.116-3.636 3.798 0 5.913 2.32 5.913 6.962Zm22.583-14.981-9.379 15.935v10.335h-4.868V23.322l-9.379-15.935h5.48l6.372 11.371 6.422-11.371h5.352Zm13.711 8.38v17.946h-3.594l-.586-2.578c-1.147 1.573-3.058 2.578-5.556 2.578-4.588 0-7.774-3.326-7.774-8.896 0-5.879 3.492-9.411 8.105-9.411 2.422 0 4.104.902 5.2 2.217l.407-1.856h3.798Zm-4.767 10.03V23.27c-.178-2.037-1.324-3.816-3.848-3.816-2.549 0-4.281 1.83-4.281 5.286 0 3.249 1.503 4.925 4.103 4.925 2.548-.026 4.026-1.65 4.026-3.868Zm18.351-10.107-.281 4.563c-.28-.103-.79-.257-1.58-.257-1.835 0-3.542 1.676-3.542 5.002v8.65h-4.792V15.767h3.849l.408 2.63c.943-1.83 2.37-2.991 4.179-2.991.918 0 1.529.18 1.759.283Zm17.713-8.303v26.326h-4.001l-.459-2.45c-1.248 1.419-3.134 2.45-5.657 2.45-4.206 0-7.315-2.913-7.315-8.87 0-5.956 3.287-9.437 8.512-9.437 1.733 0 3.109.335 4.154.773V7.387h4.766Zm-4.792 17.843v-4.693c-.841-.593-2.012-1.083-3.593-1.083-2.549 0-4.256 1.676-4.256 5.312 0 3.507 1.58 4.873 3.644 4.873 2.294 0 4.205-1.727 4.205-4.409Z" fill="#359FDB"/><path d="M42.1 23.342c-.46-.313-.919-.651-1.353-.964-2.81-2.006-6.13-5.47-6.768-6.148-.332-1.98-.92-4.377-2.783-7.138-1.456-2.605-4.087-4.116-5.67-4.82C24.173.73 17.482.208 14.902.026 14.596 0 14.29 0 13.982 0 8.876 0 7.829 3.569 7.625 5.054c-1.277.078-2.375.39-3.32.938C1.367 7.737.55 11.254.371 13.885c-.153 2.45-.025 3.413 0 3.595.204 1.98.74 3.465 2.758 5.08C1.801 28.684 1.316 35.82 1.29 35.9l-.025.182.102.156c.102.157 2.835 3.778 8.836 4.143.256.026.537.026.792.026 6.563 0 8.964-5.184 9.066-5.393l.102-.208-.076-.209s-.588-1.64.306-4.663c.74-2.5 3.371-2.944 4.06-2.996 3.167 2.449 11.978 7.138 14.277 8.076 1.149.47 2.247.73 3.217.73 1.15 0 2.018-.365 2.426-.99.69-1.12.562-2.189-.383-3.153.256.052.562.079.894.13a7.02 7.02 0 0 0 1.098.079c1.405 0 2.197-.678 2.4-2.084.23-1.694-2.323-3.648-6.282-6.383ZM11.02 39.911h-.05.331-.28ZM13.88.547h.307c-.076 0-.204-.026-.306 0Zm3.55.287c.358.052.741.104 1.124.156-.383-.052-.766-.13-1.123-.156Z" fill="#121A2C"/><path d="M40.62 22.821c-3.193-2.266-6.947-6.33-6.947-6.33-.332-2.085-.894-4.377-2.732-7.086-1.482-2.658-4.265-4.117-5.644-4.716C24.275 1.303 17.584.755 15.056.573 8.135.053 8.263 5.81 8.263 5.81l-2.478 8.363-1.864 8.076C2.491 28.5 2.006 35.95 2.006 35.95s2.605 3.569 8.453 3.934c6.895.416 9.347-5.08 9.347-5.08s-.664-1.746.306-5.002c.97-3.257 4.725-3.387 4.725-3.387 3.039 2.423 12.054 7.216 14.301 8.128 2.656 1.094 4.52.73 5.006-.052.485-.781.69-1.771-.766-2.918a42.13 42.13 0 0 0-1.507-1.12c1.072.26 1.2.521 3.294.782 1.482.182 2.656.182 2.912-1.537.204-1.772-4.086-4.481-7.457-6.878Z" fill="#121A2C"/><path d="M11.147 35.404c-4.035-.13-6.384-1.537-7.176-2.084l-.28 2.032s3.09 2.97 7.175 2.97c1.456 0 4.316.156 7.125-3.595 0 0-.102-.782-.05-1.876-1.022 1.016-2.529 2.683-6.794 2.553Z" fill="#FEFFFF"/><path d="M3.69 33.111s.102.079.281.209l.025-.235-.306.026Zm14.737-.729-.46.026c0 .156-.025.287-.025.443.178-.182.332-.339.485-.469Z" fill="#121A2C"/><path d="M31.553 13.755c-1.66-4.142-4.7-7.424-8.096-8.545-3.397-1.12-8.53-2.136-10.113 1.772 0 0-7.508 13.286-7.994 16.412l-1.328 9.691-.025.235c.766.547 3.141 1.954 7.176 2.084 4.265.13 5.797-1.537 6.793-2.58 0-.13.026-.286.026-.442.127-1.485.51-3.387 1.66-4.846 2.17-2.761 5.95-2.865 5.95-2.865s2.86.338 4.852-1.772c1.992-2.11 2.733-4.976 1.099-9.144Z" fill="#016666"/><path d="M34.005 25.27s2.81 2.553 3.831 3.439c1.022.885 5.287 3.933 5.312 4.61 0 .157-10.7-5.001-10.7-5.001s-9.169-6.487-9.117-6.67c.05-.182.383-1.484.587-1.562.204-.078 4.52.078 4.52.078l5.567 5.106Z" fill="#79455B"/><path d="M23.867 21.78c.74.103 4.928 1.718 7.354 3.75 2.452 2.032 6.564 4.95 7.764 5.523 1.2.6 4.24 1.876 4.163 2.371-.077.495-.434 1.329-3.218.208-2.784-1.146-10.01-5.522-11.032-6.226-1.022-.703-6.18-4.298-6.18-4.298l1.149-1.329Z" fill="#C8842C"/><path d="M15.643 13.599c1.022-.209 4.112-.183 6.487 2.162 2.375 2.345 2.784 4.22 2.12 5.888-.664 1.667-1.89 2.918-4.342 1.589-2.451-1.329-4.8-2.97-5.542-5.002-.74-2.032 1.277-4.637 1.277-4.637Z" fill="#02A484"/><path d="M1.06 17.454c.23 2.11.817 3.517 3.218 5.237 1.098.781 2.273 1.407 4.776 1.198 2.528-.208 4.316-1.928 5.158-3.803.843-1.876 2.273-6.2 1.226-9.691-1.021-3.491-2.937-3.96-3.882-4.273-.944-.339-4.29-1.146-6.844.365-2.554 1.51-3.499 4.585-3.677 7.477-.154 2.63.025 3.49.025 3.49Z" fill="#121A2C"/><path d="M5.503 8.154s1.303-.86 3.729-.339c2.426.522 3.933 2.293 3.933 4.455 0 2.163-.255 6.07-2.222 8.05-1.609 1.615-5.823 2.449-7.508-.833-1.686-3.283 2.477-5.706 2.477-5.706l-.409-5.627Z" fill="#1565EA"/><path d="M18.247 10.395c-.331-1.069.537-2.45 2.733-2.918 2.196-.47 4.47 0 5.644 2.11 1.175 2.11-1.047 3.152-2.324 3.439-1.277.286-5.235 0-6.053-2.631Z" fill="#02A484"/><path d="M21.311 14.432c.204-1.537 1.175-2.657 2.145-2.761.46-.052.818.182 1.073.521a3.206 3.206 0 0 0-.587-1.094c-1.073-1.198-3.142-.235-3.78 2.136-.638 2.37.255 4.273 1.175 4.533.434.13.791.104 1.123.026-.076-.026-.127-.026-.204-.078-1.379-.703-1.021-2.71-.945-3.283Z" fill="#FDFFFF"/><path d="M24.531 12.192c.383 1.198.179 2.71-.255 3.621-.435.886-.997 1.72-1.84 1.954" fill="#121A2C"/><path d="M24.275 15.813c.434-.912.613-2.423.256-3.621-.256-.339-.639-.573-1.073-.521-.97.104-1.967 1.224-2.145 2.761-.077.574-.409 2.606.945 3.257.076.026.127.052.204.078.843-.235 1.404-1.068 1.813-1.954Z" fill="#121A2C"/><path d="M44.757 28.813c-.639-.625-1.456-1.329-1.2-1.641.152-.183.535-.209 1.097 0-1.174-.834-2.681-1.85-4.29-2.996-3.627-2.58-7.917-6.67-8.351-6.982-1.481-1.094-1.737.078-1.762.651-.026.573-.026 1.277-1.328 1.876-1.303.6-2.81.026-3.703-.104-.894-.13-.817.599-.383.964 1.455 1.198 16.497 8.649 19.664 9.3.102.026.179.026.281.052.128-.208.434-.677-.025-1.12Z" fill="#FFCC34"/><path d="M46.927 29.464c.102-.417-.843-1.224-2.298-2.292-.562-.235-.945-.183-1.098 0-.23.286.587 1.016 1.2 1.64.46.444.179.913-.026 1.121 1.737.339 2.069.26 2.222-.469ZM31.68 20.763c.256.651 1.507 1.355 2.171 1.198.69-.156.358-.86-.485-1.693-.843-.808-2.17-.782-1.686.495Z" fill="#C8842C"/><path d="m7.266 23.498.153 14.433 1.737.547-.23-14.98h-1.66Z" fill="#121A2C"/><path d="M10.79 18.262c-1.353 3.126-3.626 3.022-5.566 2.527-2.043-.521-2.58-2.58-2.656-4.507-.026-1.042.357-5.367 1.685-7.138s3.78-1.329 4.52-1.12c.741.208 3.5 1.589 3.09 4.976-.408 3.569-.561 4.09-1.072 5.262Z" fill="#fff"/><path d="m3.997 17.559.434-1.564s1.839.99 2.707.626c.843-.365.46-1.277-.485-1.667-.945-.417-2.17-1.069-1.686-2.996.486-1.928 1.762-2.501 4.827-1.329l-.562 1.667S6.73 11.02 6.5 12.374c-.154 1.016 3.447 1.147 2.809 3.986-.894 3.57-5.312 1.199-5.312 1.199Z" fill="#1565EA"/></g><defs><clipPath id="a"><path fill="#fff" d="M0 0h231v41H0z"/></clipPath></defs></svg>
